packages/foundations/assets/icons/functional/images/environment/leaf_28.svg

<svg width="28" height="28" viewBox="0 0 28 28" fill="none" xmlns="http://www.w3.org/2000/svg">
<g clip-path="url(#clip0_185_813)">
<path fill-rule="evenodd" clip-rule="evenodd" d="M25.4608 6.41195C25.973 6.47789 26.2905 7.0046 26.1565 7.50184C24.1604 14.9082 21.0023 19.3398 17.1277 21.0537C14.3308 22.2908 11.2885 21.9304 9.40523 20.5615C7.97629 20.9625 6.49465 21.1474 5.01104 20.9975C4.09286 20.9047 3.23115 20.7128 2.37451 20.3908C1.30947 19.9135 1.89557 18.3788 2.995 18.7545C3.6974 19.0208 4.42332 19.1848 5.17141 19.2549C8.92243 19.6059 12.6444 17.5574 15.5484 15.3824C16.9366 14.3534 18.3331 13.0972 19.738 11.6135C20.4466 10.824 21.7231 11.7492 21.111 12.6861C21.111 12.6861 19.5973 14.3992 17.8169 15.8213C16.0305 17.2888 14.0071 18.7141 11.6322 19.757C13.0143 20.2263 16.9493 20.7766 20.5805 15.8947C22.0097 13.8864 23.213 11.262 24.1905 8.02156C22.2682 7.88054 20.5428 7.93612 19.0146 8.18831C15.4371 8.81226 11.2474 10.5149 9.40471 15.4559C9.06156 16.3636 7.4667 16.1622 7.76907 14.8336C8.87161 11.9064 11.0193 9.17835 14.7499 7.59521C17.5221 6.43324 21.3208 5.83462 25.4608 6.41195Z" fill="#1A1C1F"/>
</g>
<defs>
<clipPath id="clip0_185_813">
<rect width="28" height="28" fill="white"/>
</clipPath>
</defs>
</svg>

<svg xmlns="http://www.w3.org/2000/svg" width="28" height="28" fill="none"><g clip-path="url(#a)"><path fill="#1A1C1F" fill-rule="evenodd" d="M25.46 6.412c.513.066.83.593.697 1.09-1.997 7.406-5.155 11.838-9.03 13.552-2.796 1.237-5.838.876-7.722-.492-1.429.4-2.91.585-4.394.435a10.3 10.3 0 0 1-2.636-.606c-1.066-.477-.48-2.012.62-1.636a8.3 8.3 0 0 0 2.176.5c3.751.35 7.473-1.698 10.377-3.873q2.083-1.543 4.19-3.768c.709-.79 1.985.135 1.373 1.072 0 0-1.514 1.713-3.294 3.135-1.787 1.468-3.81 2.893-6.185 3.936 1.382.47 5.317 1.02 8.949-3.862q2.143-3.013 3.61-7.873-2.884-.212-5.176.166c-3.578.624-7.768 2.327-9.61 7.268-.343.908-1.938.706-1.636-.622 1.103-2.928 3.25-5.656 6.98-7.239 2.773-1.162 6.572-1.76 10.712-1.183" clip-rule="evenodd"/></g><defs><clipPath id="a"><path fill="#fff" d="M0 0h28v28H0z"/></clipPath></defs></svg>
